logos/houndci.svg

<?xml version="1.0" encoding="UTF-8" standalone="no"?>
<svg width="256px" height="251px" viewBox="0 0 256 251" version="1.1" xmlns="http://www.w3.org/2000/svg" xmlns:xlink="http://www.w3.org/1999/xlink" preserveAspectRatio="xMidYMid">
    <g>
        <path d="M203.939787,250.980392 L6.71579231,250.980392 C3.00827645,250.980392 0,248.032585 0,244.396282 L0,6.58410988 C0,2.94929042 3.00676261,0 6.71579231,0 L249.284207,0 C252.991722,0 256,2.94780649 256,6.58410988 L256,109.950564 C255.027304,107.000589 243.634652,73.2502669 226.030119,56.1097331 C207.611501,38.1765719 174.214395,23.502835 179.180722,35.2970706 C184.147048,47.0913061 184.147046,77.8136531 184.147046,77.8136531 L134.141919,96.8865501 L126.641565,124.627924 L65.4427703,140.763052 C65.4427703,140.763052 69.8039075,171.977785 87.3945786,177.433263 C98.6777108,180.932554 172.635562,189.091279 172.635562,189.091279 L158.595365,250.980392 L203.939787,250.980392 L203.939787,250.980392 Z" fill="#A873D1"></path>
    </g>
</svg>

<svg preserveAspectRatio="xMidYMid" viewBox="0 0 256 251" xmlns="http://www.w3.org/2000/svg">
  <path fill="#A873D1" d="M203.94 250.98H6.716c-3.708 0-6.716-2.947-6.716-6.584V6.584C0 2.95 3.007 0 6.716 0h242.568C252.992 0 256 2.948 256 6.584v103.367c-.973-2.95-12.365-36.7-29.97-53.841-18.418-17.933-51.816-32.607-46.85-20.813 4.967 11.794 4.967 42.517 4.967 42.517l-50.005 19.073-7.5 27.74-61.2 16.136s4.362 31.215 21.953 36.67c11.283 3.5 85.24 11.658 85.24 11.658l-14.04 61.89h45.345Z"/>
</svg>
